images/icons/telegram.svg

<svg width="75" height="75" viewBox="0 0 75 75" fill="none" xmlns="http://www.w3.org/2000/svg">
<path fill-rule="evenodd" clip-rule="evenodd" d="M75 37.5C75 58.2094 58.2094 75 37.5 75C16.7906 75 0 58.2094 0 37.5C0 16.7906 16.7906 0 37.5 0C58.2094 0 75 16.7906 75 37.5ZM38.8438 27.6844C35.1969 29.2 27.9062 32.3406 16.975 37.1031C15.2 37.8094 14.2688 38.5 14.1844 39.175C14.0406 40.3187 15.4719 40.7687 17.4156 41.3781C17.6812 41.4625 17.9562 41.5469 18.2375 41.6406C20.1531 42.2625 22.7281 42.9906 24.0656 43.0187C25.2813 43.0437 26.6375 42.5438 28.1344 41.5187C38.3469 34.6219 43.6187 31.1375 43.95 31.0625C44.1844 31.0094 44.5094 30.9406 44.7281 31.1375C44.9469 31.3312 44.925 31.7 44.9031 31.8C44.7594 32.4031 39.1531 37.6187 36.2469 40.3187C35.3406 41.1594 34.7 41.7562 34.5687 41.8937C34.275 42.1969 33.975 42.4875 33.6875 42.7656C31.9062 44.4781 30.575 45.7656 33.7625 47.8656C35.2938 48.875 36.5187 49.7094 37.7406 50.5406C39.075 51.45 40.4062 52.3562 42.1312 53.4875C42.5687 53.775 42.9875 54.0719 43.3969 54.3625C44.95 55.4719 46.3469 56.4656 48.0719 56.3094C49.0719 56.2156 50.1094 55.275 50.6344 52.4656C51.875 45.8219 54.3187 31.4344 54.8844 25.5031C54.9188 25.0107 54.8978 24.5159 54.8219 24.0281C54.7764 23.6342 54.5846 23.2717 54.2844 23.0125C53.8375 22.6469 53.1437 22.5687 52.8312 22.575C51.4219 22.6 49.2594 23.3531 38.8438 27.6844Z" fill="#034694"/>
</svg>

<svg xmlns="http://www.w3.org/2000/svg" fill="none" viewBox="0 0 75 75"><path fill="#034694" fill-rule="evenodd" d="M75 37.5C75 58.21 58.21 75 37.5 75S0 58.21 0 37.5 16.79 0 37.5 0 75 16.79 75 37.5zm-36.156-9.816c-3.647 1.516-10.938 4.657-21.869 9.42-1.775.705-2.706 1.396-2.79 2.071-.144 1.144 1.287 1.594 3.23 2.203.266.084.541.169.823.263 1.915.622 4.49 1.35 5.828 1.378 1.215.025 2.572-.475 4.068-1.5C38.347 34.622 43.62 31.138 43.95 31.063c.234-.054.56-.122.778.075.219.193.197.562.175.662-.144.603-5.75 5.819-8.656 8.519a88.645 88.645 0 0 0-1.678 1.575c-.294.303-.594.593-.882.872-1.78 1.712-3.112 3 .076 5.1 1.53 1.009 2.756 1.843 3.978 2.675a277.67 277.67 0 0 0 4.39 2.947c.438.287.856.584 1.266.874 1.553 1.11 2.95 2.104 4.675 1.947 1-.093 2.037-1.034 2.562-3.843 1.241-6.644 3.685-21.032 4.25-26.963a6.602 6.602 0 0 0-.062-1.475 1.582 1.582 0 0 0-.538-1.015c-.447-.366-1.14-.444-1.453-.438-1.41.025-3.572.778-13.987 5.11z" clip-rule="evenodd"/></svg>
